src/assets/images/services/alchemy.svg

<svg width="36" height="36" viewBox="0 0 36 36" fill="none" xmlns="http://www.w3.org/2000/svg">
<rect width="36" height="36" fill="white"/>
<circle cx="18" cy="18" r="18" fill="url(#paint0_linear_52_896)"/>
<path d="M25.852 18.8037L18.4319 6.20619C18.396 6.14398 18.3439 6.09217 18.2811 6.05597C18.2182 6.01977 18.1467 6.00047 18.0737 6.00001C18.0008 5.99955 17.9291 6.01796 17.8657 6.05336C17.8024 6.08877 17.7497 6.13993 17.713 6.20168L15.4907 9.97644C15.418 10.1 15.3796 10.2402 15.3796 10.3828C15.3796 10.5255 15.418 10.6657 15.4907 10.7892L20.3291 19.0075C20.4019 19.1312 20.5068 19.2338 20.633 19.3052C20.7592 19.3765 20.9023 19.414 21.048 19.4139H25.4926C25.5653 19.4137 25.6367 19.3947 25.6996 19.359C25.7626 19.3233 25.8149 19.2719 25.8513 19.2102C25.8877 19.1484 25.9069 19.0784 25.9071 19.007C25.9071 18.9357 25.8882 18.8656 25.852 18.8037Z" fill="white"/>
<path d="M6.40194 25.3876L13.822 12.7901C13.8584 12.7284 13.9108 12.6771 13.9738 12.6415C14.0368 12.6059 14.1082 12.5872 14.1809 12.5872C14.2536 12.5872 14.3251 12.6059 14.3881 12.6415C14.4511 12.6771 14.5034 12.7284 14.5398 12.7901L16.7632 16.5615C16.836 16.6852 16.8742 16.8256 16.8742 16.9684C16.8742 17.1113 16.836 17.2516 16.7632 17.3754L11.9248 25.5937C11.8522 25.7173 11.7476 25.8201 11.6216 25.8914C11.4956 25.9627 11.3526 26.0002 11.207 26.0001H6.76141C6.68817 26.0005 6.61615 25.9817 6.55266 25.946C6.48917 25.9101 6.43649 25.8585 6.39997 25.7963C6.36344 25.7341 6.34438 25.6635 6.34473 25.5918C6.34508 25.5199 6.36482 25.4496 6.40194 25.3876Z" fill="white"/>
<path d="M14.5387 25.9971H29.3788C29.4517 25.9971 29.5231 25.9782 29.5862 25.9425C29.6492 25.9068 29.7015 25.8553 29.7377 25.7935C29.774 25.7317 29.7932 25.6615 29.7931 25.5902C29.7929 25.5188 29.7737 25.4487 29.7372 25.387L27.5172 21.6134C27.4444 21.4897 27.3395 21.387 27.2133 21.3157C27.0871 21.2443 26.9439 21.2069 26.7983 21.207H17.1215C16.9758 21.2069 16.8327 21.2443 16.7065 21.3157C16.5803 21.387 16.4755 21.4897 16.4026 21.6134L14.1804 25.387C14.1439 25.4487 14.1246 25.5188 14.1245 25.5902C14.1244 25.6615 14.1435 25.7317 14.1798 25.7935C14.2161 25.8553 14.2684 25.9068 14.3314 25.9425C14.3944 25.9782 14.4659 25.9971 14.5387 25.9971Z" fill="white"/>
<defs>
<linearGradient id="paint0_linear_52_896" x1="18" y1="0" x2="18" y2="36" gradientUnits="userSpaceOnUse">
<stop stop-color="#383FFA"/>
<stop offset="1" stop-color="#0FB9FE"/>
</linearGradient>
</defs>
</svg>

<svg xmlns="http://www.w3.org/2000/svg" width="36" height="36" fill="none"><path fill="#fff" d="M0 0h36v36H0z"/><circle cx="18" cy="18" r="18" fill="url(#a)"/><path fill="#fff" d="m25.852 18.804-7.42-12.598A.41.41 0 0 0 18.074 6a.42.42 0 0 0-.361.202l-2.222 3.774a.8.8 0 0 0 0 .813l4.838 8.219a.8.8 0 0 0 .304.297c.126.072.27.109.415.109h4.445a.42.42 0 0 0 .358-.204.4.4 0 0 0 .001-.406M6.402 25.388l7.42-12.598a.41.41 0 0 1 .359-.203.42.42 0 0 1 .359.203l2.223 3.771a.8.8 0 0 1 0 .814l-4.838 8.219a.8.8 0 0 1-.303.297.84.84 0 0 1-.415.11H6.761a.42.42 0 0 1-.361-.205.4.4 0 0 1 .002-.408M14.539 25.997h14.84a.42.42 0 0 0 .359-.203.4.4 0 0 0 0-.407l-2.22-3.774a.842.842 0 0 0-.719-.406h-9.677a.84.84 0 0 0-.72.406l-2.222 3.774a.4.4 0 0 0 .151.555.4.4 0 0 0 .208.055"/><defs><linearGradient id="a" x1="18" x2="18" y1="0" y2="36" gradientUnits="userSpaceOnUse"><stop stop-color="#383FFA"/><stop offset="1" stop-color="#0FB9FE"/></linearGradient></defs></svg>
